X:1125
L:1/8
M:4/4
K:F
 AG | GF D2 C2 DE |"^(a)" F2 F2 G2 F2 | d2 dc A2 GF | D3 E F2 :| c2 | c2 c2 dcAG | 
 FA c2 !fermata!d2 dc | A2 A2 G2 AG | GF D2 !fermata!C2 AG | GF D2 C2 DE | F2 F2 G2 FG | 
 d2 dc A2 GF | D3 E F2 |]

